X: 343
T: Robin fill the drink about.   a Reel.
C: Old.
R: reel
N: This is version 1, for ABC software that doesn't understand trailing grace notes.
B: William Christie's "A Collection of Strathspeys, Reels, Hornpipes, Waltzes, &c." p.34 #3
S: https://digital.nls.uk/special-collections-of-printed-music/archive/120545033
Z: 2022 John Chambers <jc:trillian.mit.edu>
M: C|
L: 1/8
K: Am
% = = = = = = = = = =
V: 1 staves=2
c |\
A/A/A (.c.G) TA2 (G>A) | Tc>ded cG-Gc | A/A/A (.c.G) TA2c>d | (e<g) Td>e cAA :| g | Ta>ba>e Tg>agd | eged cG-Gg |
Ta>bae Tg>agd | eg Td>e cA-Ag || aegd ecdA | cede cAGc | dA cG A2T(ag/a/) | gede cAA |]
% = = = = = = = = = =
% Voice 2 preserves the staff layout in the book.
V: 2 clef=bass middle=d
z | [a2c'2][e2c'2] [f2c'2][e2c'2] | c2G2 c2e2 | [a2c'2][a2c'2] [a2c'2][a2c'2] | e2E2 A2A :| z | A2a2 g2b2 | c'2b2 g2b2 |
a2c'2 [g2b2][g2b2] | e'2[e2^g2] a2A2 || a2b2 c'2f2 | c2 [B2g2] [A2a2] [c2c'2] | [A2a2][E2e2] [F2f2][F2f2] | e2E2 A2A |]
% = = = = = = = = = =
